X: 246
T: You Never Saw Rosey
B: O'Neill's 246
N: "Slow"
Z: 1997 by John Chambers <jc@trillian.mit.edu>
M: 3/4
L: 1/8
K:G
(G/A/).B/.c/ \
| (d3 f) g2 | (f d3) (B>G) | {GAB}A4 G2 | G6 \
| .d2 .d2 (ga) | b2 a2 gf | d2 (gf) (d>e) | d4 (G/A/).B/.c/ |
| .d2 .d2 (g>a)  | b2 a2 gf | d2 gf d>{f}e | d4 (c/d/).e/.f/ \
| a2 g2 (fe) | c f2 dBG | {GAB}A4 G2 | G4 ||


